img/image/single-brand.svg

<svg width="99" height="98" viewBox="0 0 99 98" fill="none" xmlns="http://www.w3.org/2000/svg">
<path fill-rule="evenodd" clip-rule="evenodd" d="M41.7078 0.62797C41.1911 1.14487 40.7684 23.2655 40.7684 49.7838V98L49.7117 97.609L58.6549 97.2167V48.8402V0.463623L50.651 0.0766112C46.2483 -0.136776 42.2245 0.11107 41.7078 0.62797ZM10.6027 18.6916C6.10193 23.4842 1.09241 35.8381 0.204718 44.3352C-1.14935 57.2895 4.35569 73.6593 12.5172 80.9542C14.9855 83.161 15.3207 83.0072 21.3133 76.9211L27.5431 70.5937L24.2957 66.1908C17.6261 57.1477 17.3015 41.7056 23.5935 32.8653C27.2158 27.7785 26.9058 26.2172 21.1702 20.6134C15.2982 14.8772 14.3469 14.7049 10.6027 18.6916ZM78.0914 21.4392L72.4658 27.1741L76.4909 34.8282C81.9271 45.1662 81.8886 52.2968 76.3346 63.4141L72.1531 71.7852L78.3935 77.6832C84.4497 83.4062 84.7107 83.5109 87.2453 81.218C88.6802 79.9178 91.7089 75.0881 93.9732 70.4863C98.8065 60.6666 100.308 47.6195 97.8062 37.1861C96.0388 29.8156 87.8415 15.7055 85.3268 15.7055C84.4418 15.7055 81.1864 18.2861 78.0914 21.4392Z" fill="white"/>
</svg>

<svg width="99" height="98" fill="none" xmlns="http://www.w3.org/2000/svg"><path fill-rule="evenodd" clip-rule="evenodd" d="M41.708.628c-.517.517-.94 22.637-.94 49.156V98l8.944-.391 8.943-.392V.464L50.65.077c-4.403-.214-8.427.034-8.943.551ZM10.603 18.692C6.102 23.484 1.093 35.838.205 44.335-1.15 57.29 4.355 73.66 12.517 80.955c2.469 2.206 2.804 2.052 8.796-4.034l6.23-6.327-3.247-4.403c-6.67-9.043-6.994-24.485-.703-33.326 3.623-5.087 3.313-6.648-2.423-12.252-5.872-5.736-6.823-5.908-10.567-1.921Zm67.488 2.747-5.625 5.735 4.025 7.654c5.436 10.338 5.398 17.469-.156 28.586l-4.182 8.371 6.24 5.898c6.057 5.723 6.318 5.828 8.852 3.535 1.435-1.3 4.464-6.13 6.728-10.732 4.834-9.82 6.335-22.867 3.833-33.3-1.767-7.37-9.965-21.48-12.48-21.48-.884 0-4.14 2.58-7.235 5.733Z" fill="#fff"/></svg>
